epam-assets/icon-sources/18/in_progress-status.svg

<svg width="18" height="18" viewBox="0 0 18 18" fill="none" xmlns="http://www.w3.org/2000/svg">
<g id="18/in_progress-status">
<g id="icon">
<path d="M1.28577 9.77259H3.21434C3.268 10.1707 3.36269 10.5562 3.49526 10.9259L1.81604 11.8959C1.54459 11.2292 1.36152 10.5151 1.28577 9.77259Z" fill="#6C6F80"/>
<path d="M2.86082 4.23688C3.2964 3.6713 3.8109 3.16892 4.38221 2.74552L5.34808 4.42014C5.05453 4.65711 4.78308 4.91936 4.54003 5.20689L2.86082 4.23688Z" fill="#6C6F80"/>
<path d="M9.9091 3.21947V1.28577C13.741 1.74708 16.7143 5.01099 16.708 8.9732C16.708 13.2482 13.2454 16.7143 8.9748 16.7143C7.87005 16.7143 6.81581 16.4805 5.86257 16.0603L6.82844 14.3857C7.49444 14.6511 8.22042 14.7964 8.97796 14.7964C12.188 14.7964 14.7984 12.1834 14.7984 8.97004C14.7984 6.0758 12.6773 3.66498 9.9091 3.21947Z" fill="#6C6F80"/>
<path d="M8.04681 1.28577V3.21947C7.67436 3.27951 7.31452 3.37745 6.96732 3.50384L5.9983 1.82607C6.64221 1.5575 7.33031 1.37108 8.04681 1.28577Z" fill="#6C6F80"/>
<path d="M1.31733 7.91155C1.41834 7.18167 1.62035 6.48655 1.90758 5.83566L3.57733 6.80252C3.43529 7.1564 3.32481 7.52608 3.25537 7.91155H1.31733Z" fill="#6C6F80"/>
<path d="M2.71878 13.5231L4.39168 12.5562C4.6442 12.8754 4.92512 13.1692 5.23129 13.4315L4.26227 15.1124C3.67518 14.6574 3.15437 14.1234 2.71878 13.5231Z" fill="#6C6F80"/>
<path d="M5.35848 8.8323L8.15441 11.5715L12.3817 6.9622L11.3146 5.76002L8.15441 9.34442L6.42859 7.71433L5.35848 8.8323Z" fill="#6C6F80"/>
</g>
</g>
</svg>

<svg xmlns="http://www.w3.org/2000/svg" width="18" height="18" fill="none" viewBox="0 0 18 18">
  <path fill="#6C6F80" d="M1.286 9.773h1.928c.054.398.149.783.281 1.153l-1.679.97a7.705 7.705 0 0 1-.53-2.123ZM2.86 4.237a7.734 7.734 0 0 1 1.522-1.491l.966 1.674c-.293.237-.565.5-.808.787l-1.68-.97ZM9.91 3.22V1.285a7.732 7.732 0 0 1 6.798 7.687c0 4.275-3.463 7.741-7.733 7.741a7.702 7.702 0 0 1-3.112-.654l.965-1.674a5.83 5.83 0 0 0 7.97-5.416A5.832 5.832 0 0 0 9.91 3.22ZM8.047 1.286v1.933c-.373.06-.732.158-1.08.285l-.969-1.678a7.68 7.68 0 0 1 2.049-.54Zm-6.73 6.626a7.78 7.78 0 0 1 .59-2.076l1.67.967a5.675 5.675 0 0 0-.322 1.109H1.317Zm1.402 5.611 1.673-.967c.252.32.533.613.84.876l-.97 1.68a7.834 7.834 0 0 1-1.543-1.589Z"/>
  <path fill="#6C6F80" d="m5.358 8.832 2.796 2.74 4.228-4.61-1.067-1.202-3.16 3.584-1.726-1.63-1.07 1.118Z"/>
</svg>
